src/image.svg

<svg viewBox="0 0 16 16" fill="none" xmlns="http://www.w3.org/2000/svg"><path fill-rule="evenodd" clip-rule="evenodd" d="M14 2V8L13 7V3H3V10L2 11V2H14ZM5.5 7C6.32843 7 7 6.32843 7 5.5C7 4.67157 6.32843 4 5.5 4C4.67157 4 4 4.67157 4 5.5C4 6.32843 4.67157 7 5.5 7ZM13 10.4L11.11 8.52L8.8 11.6L8.11 12.52L7.29 11.71L6.08 10.5L4.08 13H13V10.4ZM8 11L11 7L14 10V14H2L6 9L8 11Z" fill="#111111"/></svg>

<svg viewBox="0 0 16 16" fill="none" xmlns="http://www.w3.org/2000/svg"><path fill-rule="evenodd" clip-rule="evenodd" d="M14 2v6l-1-1V3H3v7l-1 1V2h12ZM5.5 7a1.5 1.5 0 1 0 0-3 1.5 1.5 0 0 0 0 3Zm7.5 3.4-1.89-1.88L8.8 11.6l-.69.92-.82-.81-1.21-1.21-2 2.5H13v-2.6ZM8 11l3-4 3 3v4H2l4-5 2 2Z" fill="#111111"/></svg>
